src/xmb/monochrome/musics.svg

<?xml version="1.0" encoding="UTF-8" standalone="no"?>
<!-- Generator: Adobe Illustrator 16.0.0, SVG Export Plug-In . SVG Version: 6.00 Build 0)  -->

<svg
   xmlns:dc="http://purl.org/dc/elements/1.1/"
   xmlns:cc="http://creativecommons.org/ns#"
   xmlns:rdf="http://www.w3.org/1999/02/22-rdf-syntax-ns#"
   xmlns:svg="http://www.w3.org/2000/svg"
   xmlns="http://www.w3.org/2000/svg"
   xmlns:sodipodi="http://sodipodi.sourceforge.net/DTD/sodipodi-0.dtd"
   xmlns:inkscape="http://www.inkscape.org/namespaces/inkscape"
   version="1.1"
   id="svg2"
   inkscape:export-filename="/home/kivutar/Bureau/lakka-menu/reload.png"
   inkscape:export-xdpi="90"
   inkscape:version="0.91 r13725"
   inkscape:export-ydpi="90"
   sodipodi:docname="musics.svg"
   x="0px"
   y="0px"
   width="64px"
   height="64px"
   viewBox="0 128 64 64"
   enable-background="new 0 128 64 64"
   xml:space="preserve"><metadata
     id="metadata8"><rdf:RDF><cc:Work
         rdf:about=""><dc:format>image/svg+xml</dc:format><dc:type
           rdf:resource="http://purl.org/dc/dcmitype/StillImage" /><dc:title></dc:title></cc:Work></rdf:RDF></metadata><defs
     id="defs6" /><sodipodi:namedview
     pagecolor="#808080"
     bordercolor="#666666"
     borderopacity="1"
     objecttolerance="10"
     gridtolerance="10"
     guidetolerance="10"
     inkscape:pageopacity="0"
     inkscape:pageshadow="2"
     inkscape:window-width="1440"
     inkscape:window-height="836"
     id="namedview4"
     showgrid="false"
     inkscape:zoom="3.6875"
     inkscape:cx="32"
     inkscape:cy="32"
     inkscape:window-x="0"
     inkscape:window-y="27"
     inkscape:window-maximized="1"
     inkscape:current-layer="svg2" /><path
     style="fill:#ffffff"
     d="M 32 5 C 9.585 5 5 9.5549531 5 32.001953 C 5 54.448953 9.514 59 32 59 C 54.489 59 59 54.457953 59 32.001953 C 59 9.5439531 54.415 5 32 5 z M 44.421875 11.273438 C 45.260075 11.321767 45.894462 11.936218 45.982422 12.798828 A 1.0001 1.0001 0 0 0 45.982422 12.800781 A 1.0001 1.0001 0 0 1 46 13 L 46 18 L 46 45 A 1.0001 1.0001 0 0 1 45.996094 45.097656 A 4 4 0 0 1 42 49 A 4 4 0 0 1 38 45 A 4 4 0 0 1 42 41 A 4 4 0 0 1 44 41.541016 L 44 22.3125 C 44 21.2045 43.127287 20.43139 42.03125 20.59375 L 33 21.9375 L 33 21.925781 L 22.910156 23.419922 C 21.84243 23.609582 21 24.59978 21 25.6875 L 21 49 A 1.0001 1.0001 0 0 1 20.996094 49.097656 A 4 4 0 0 1 17 53 A 4 4 0 0 1 13 49 A 4 4 0 0 1 17 45 A 4 4 0 0 1 19 45.541016 L 19 22 L 19 17 A 1.0001 1.0001 0 0 1 19.021484 16.789062 C 19.125082 15.765572 19.95295 14.858961 20.978516 14.707031 L 44.021484 11.292969 C 44.158489 11.272709 44.292854 11.266437 44.421875 11.273438 z "
     transform="translate(0,128)"
     id="Games" /></svg>

<svg xmlns="http://www.w3.org/2000/svg" xml:space="preserve" width="64" height="64" viewBox="0 128 64 64"><path d="M32 5C9.585 5 5 9.555 5 32.002S9.514 59 32 59c22.489 0 27-4.542 27-26.998C59 9.544 54.415 5 32 5m12.422 6.273c.838.049 1.472.663 1.56 1.526v.002A1 1 0 0 1 46 13v32a1 1 0 0 1-.004.098A4 4 0 0 1 42 49a4 4 0 0 1-4-4 4 4 0 0 1 4-4 4 4 0 0 1 2 .541V22.313c0-1.108-.873-1.882-1.969-1.72L33 21.939v-.012L22.91 23.42c-1.068.19-1.91 1.18-1.91 2.267V49a1 1 0 0 1-.004.098A4 4 0 0 1 17 53a4 4 0 0 1-4-4 4 4 0 0 1 4-4 4 4 0 0 1 2 .541V17a1 1 0 0 1 .021-.21c.104-1.024.932-1.931 1.958-2.083l23.042-3.414a2 2 0 0 1 .4-.02" style="fill:#fff" transform="translate(0 128)"/></svg>
